X: 133
T: Foot March
B: C. & S. Thompson, "The Compleat Tutor for the Fife" c.1760 p.13 #3
S: http://imslp.org/wiki/The_Compleat_Tutor_for_the_Fife_(Anonymous)
Z: 2014 John Chambers <jc:trillian.mit.edu>
M: C
L: 1/8
K: G
% - - - - - - - - - - - - - - - - - - - - - - - - -
|:\
G>AB>c d2BA | G4 G>AB>c |\
d2e^c d4 :: B2cA G4 |\
d2e^c d4 | B2cA G4 |
d2e^c d4 | B2cA G4 |\
d2e^c d4 | B2AG g3d |\
B2AG B2AG | A2D2 G4 :|
% - - - - - - - - - - - - - - - - - - - - - - - - -
